public/assets/images/icons/green/remove/doit.svg

<svg width="16" height="16" xmlns="http://www.w3.org/2000/svg" viewBox="0 0 16 16" shape-rendering="geometricPrecision" fill="#00962d"><defs><mask id="a"><rect fill="#fff" width="100%" height="100%"/><path fill="#000" d="M8.986 1.143H17v3.565H8.986z"/></mask></defs><path d="M9.986 2.143H16v1.565H9.986z" fill="#cb1800"/><g mask="url(#a)"><ellipse cx="6.496" cy="3.368" rx="1.771" ry=".427"/><ellipse cx="10.762" cy="3.368" rx="1.771" ry=".427"/><path d="M8.268 3.573v.704c-.276.075-.448.173-.448.282 0 .235.793.427 1.77.427.978 0 1.771-.191 1.771-.427 0-.235-.793-.427-1.771-.427-.213 0-.414.01-.604.027v-.586h-.718z"/><path d="M12.533 3.573v1.15c0 .185-.49.34-1.172.4v.79c0 .235-.793.427-1.771.427-.977 0-1.77-.191-1.77-.427h-.006v-.907a4.24 4.24 0 0 1-.718.118v.79c0 .235-.793.427-1.771.427-.978 0-1.771-.191-1.771-.427h-.005V4.522h.02c-.005.012-.015.024-.015.037 0 .235.793.427 1.771.427.979 0 1.771-.191 1.771-.427 0-.235-.793-.427-1.771-.427-.213 0-.414.01-.604.027v-.586h-.282L.975 7.038v6.879h10.586l3.465-3.465V3.573h-2.493zm-1.725 9.493H1.883V7.755h8.925v5.311zm3.7-3.159l-2.637 2.635V7.391l2.637-2.636v5.152z"/></g></svg>

<?xml version="1.0"?><!DOCTYPE svg PUBLIC "-//W3C//DTD SVG 1.1//EN" "http://www.w3.org/Graphics/SVG/1.1/DTD/svg11.dtd"><svg width="16px" height="16px" xmlns="http://www.w3.org/2000/svg" viewBox="0 0 16 16" shape-rendering="geometricPrecision" fill="#00962d"><defs><mask id="remove-path"><rect fill="#fff" width="100%" height="100%"/><rect x="8.986" y="1.143" width="8.014" height="3.565" fill="#000"/></mask></defs><g fill="#cb1800"><rect x="9.986" y="2.143" width="6.014" height="1.565"/></g><g mask="url(#remove-path)"><ellipse cx="6.496" cy="3.368" rx="1.771" ry="0.427"/><ellipse cx="10.762" cy="3.368" rx="1.771" ry="0.427"/><path d="M8.268,3.573v0.704C7.992,4.352,7.82,4.45,7.82,4.559c0,0.235,0.793,0.427,1.77,0.427 c0.978,0,1.771-0.191,1.771-0.427c0-0.235-0.793-0.427-1.771-0.427c-0.213,0-0.414,0.01-0.604,0.027V3.573H8.268z"/><path d="M12.533,3.573v1.15c0,0.185-0.49,0.34-1.172,0.4v0.79c0,0.235-0.793,0.427-1.771,0.427 c-0.977,0-1.77-0.191-1.77-0.427H7.814V5.006C7.62,5.059,7.375,5.099,7.096,5.124v0.79c0,0.235-0.793,0.427-1.771,0.427 c-0.978,0-1.771-0.191-1.771-0.427H3.549V4.522h0.02C3.564,4.534,3.554,4.546,3.554,4.559c0,0.235,0.793,0.427,1.771,0.427 c0.979,0,1.771-0.191,1.771-0.427c0-0.235-0.793-0.427-1.771-0.427c-0.213,0-0.414,0.01-0.604,0.027V3.573H4.439L0.975,7.038 v6.879h10.586l3.465-3.465V3.573H12.533z M10.808,13.066H1.883V7.755h8.925V13.066z M14.508,9.907l-2.637,2.635V7.391l2.637-2.636 V9.907z"/></g></svg>
